X:291
T:Hardiman the Fiddler
M:9/8
L:1/8
K:G
"D"A2 G FDE F2 G|A2 A AGA "C"cAG|"D"A2 G FDE F2 G|Add ded "C"cAG:|
|:"D"Add d2 e f3|Add ded "C"cAG|"D"Add d2 e f2 g|afa "C"ged cAG:|
